!!!OTL: Graf und Nonne (Die Nonne)
!!!OTL-incipit:Ich stand auf hohem Berge,
!!!ARE: Europa, Mitteleuropa, Deutschland (BRD), Wuerttemberg, Sindelfingen
!!!YOR: 8, S. 291
!!    1926 aufgezeichnet
!!!SCT: Q0155O.
!!!TXL: @@DE
!!!YEM: Copyright 1995, estate of Helmut Schaffrath.
**kern	**text
*ICvox	*
*M6/8	*
*k[f#]	*
*G:	*
{8d	Jch
=1	=1
(8BL	stand
8d)	.
8gJ	auf
(8BL	ho-
8d)	.
8bJ	-hem
=2	=2
8bL	Ber-
8aJ	-ge,
8r	.
4r}	.
{16dL	sah
16dJ	hin-
=3	=3
(8dL	-ab
8f#)	.
8aJ	ins
(8eeL	tie-
8dd)	.
8ccJ	-fe
=4	=4
4.b	Tal.
4r}	.
{16gL	Da
16bJ	sah
=5	=5
4dd	ich
8dd	ein
(8ddL	Schiff-
8cc)	.
8bJ	-lein
=6	=6
8bL	fah-
8aJ	-ren,
8r	.
4r}	.
{8d	wo-
=7	=7
(8dL	-rin
8f#)	.
8aJ	drei
(8eeL	Gra-
8dd)	.
8ccJ	-fen
=8	=8
4.b	warn.
4r}	.
{16gL	Da
16bJ	sah
=9	=9
4dd	ich
8dd	ein
(8ddL	Schiff-
8cc)	.
8bJ	-lein
=10	=10
8bL	fah-
8aJ	-ren,
8r	.
4r}	.
{8d	wo-
=11	=11
(8dL	-rin
8f#)	.
8aJ	drei
(8eeL	Gra-
8dd)	.
8ccJ	-fen
=12	=12
4.b	warn.
4r}	.
==	==
!!!AGN: Ballade, Standesunterschied, vergebliche Werbung, Liebe, Klage
!!!ONB: ESAC (Essen Associative Code) Database: BALLADE
!!!AMT: compound duple
!!!AIN: vox
!!!EED: Helmut Schaffrath
!!!EEV: 1.0
!!!source: Deutsche Volkslieder mit ihren Melodien. Herausgegeben vom Deutschen Volksliedarchiv. Achter Teil. Freiburg/Breisgau 1988.
!!!page: 291
!!!ENC: Anna Maria Matuszewska
!!!EEV: 2025/03/10
*-	*-
